X:1
T:Corbet, 12.12.12.12
T:George Alexander Macfarren (1813-1887)
T:Corbet, 12.12.12.12
T:Public Domain
C:George Alexander Macfarren (1813-1887)
Z:Public Domain
%%score ( 1 2 ) ( 3 4 )
L:1/8
M:4/4
K:D
V:1 treble 
V:2 treble 
V:3 bass 
V:4 bass 
V:1
 D2 | (D2 E2) F2 [A,D]2 | D2 C2 D2 [FA]2 | B2 c2 d2 [DB]2 | G2 F2 G2 B2 | [Ec]2 AG [Fd]2 [GB]2 | %6
 [DA]2 (DC) D2 [DF]2 | [DE]4 [DB]4 | [CA]6 [EA]2 | B2 c2 d2 [DB]2 | D2 C2 D2 [DF]2 | %11
 G2 A2 B2 [EG]2 | C2 D2 C2 [DF]2 | [EG]2 [FA]2 [GB]2 A2 | [GB]2 [Gc]2 [Fd]2 [FB]2 | [Be]4 [Ac]4 | %16
 [Fd]6 |] %17
V:2
 D2 | D6 x2 | A6 x2 | G6 x2 | d6 B2 | x2 A2 x4 | x2 F2 D2 x2 | x8 | x8 | G6 x2 | A6 x2 | B,6 x2 | %12
 F6 x2 | x6 A2 | x8 | x8 | x6 |] %17
V:3
 D,2 | D,6 [D,F,]2 | [D,F,]2 [E,G,]2 [F,A,]2 [D,D]2 | [G,D]6 G,2 | [G,B,]2 [A,=C]2 [B,D]2 [G,E]2 | %5
 [A,E]2 [A,C]2 [B,D]2 [G,D]2 | [F,D]2 [D,A,]2 [B,,B,]2 (B,A,) | [E,^G,]4 [E,G,]4 | %8
 [A,,A,]6 [A,C]2 | [G,D]6 G,2 | [D,F,]2 [E,G,]2 [F,A,]2 [D,A,]2 | [E,G,]6 [E,B,]2 | %12
 [F,^A,]2 (D,E,) [F,A,]2 [B,,B,]2 | (B,C) [D,D]2 [G,D]2 [F,D]2 | [G,D]2 [E,E]2 [B,D]2 (B,A,) | %15
 [G,E]4 [A,E]4 | [D,D]6 |] %17
V:4
 D,2 | D,6 x2 | x8 | x6 G,2 | x8 | x8 | x6 D,2 | x8 | x8 | x6 G,2 | x8 | x8 | x2 B,2 x4 | E,2 x6 | %14
 x6 D2 | x8 | x6 |] %17

